src/status/22/dropboxstatus-idle.svg

<svg viewBox="0 0 22 22" xmlns="http://www.w3.org/2000/svg">
 <path d="m6.5 3.5-4.5 3.5 4.5 3-4.5 4 9 6 9-6-4.5-4 4.5-3-4.5-3.5-4.5 3.5-4.5-3.5z" fill="#2e3440"/>
</svg>

<svg xmlns="http://www.w3.org/2000/svg" viewBox="0 0 22 22">
 <path d="M 6.5,3.5 2,7 6.5,10 2,14 11,20 20,14 15.5,10 20,7 15.5,3.5 11,7 6.5,3.5 z" style="fill:#2e3440;fill-opacity:1;color:#000"/>
</svg>
